icons/themes/default/pin.svg

<svg viewBox="0 0 20 20" fill="none" xmlns="http://www.w3.org/2000/svg">
<path d="M10 12.6351H4V10.4054L4.31161 10.1001C5.43683 8.9977 6.06897 7.50252 6.06897 5.94347V4.12162C6.06897 3.22602 6.81001 2.5 7.72414 2.5H12.2759C13.19 2.5 13.931 3.22602 13.931 4.12162V5.94347C13.931 7.50252 14.5632 8.9977 15.6884 10.1001L16 10.4054V12.6351H10ZM10 12.6351V17.5" stroke="currentColor" stroke-width="1.1"/>
</svg>

<svg xmlns="http://www.w3.org/2000/svg" fill="none" viewBox="0 0 20 20">
  <path stroke="currentColor" stroke-width="1.1" d="M10 12.635H4v-2.23l.312-.305a5.819 5.819 0 0 0 1.757-4.157V4.122c0-.896.741-1.622 1.655-1.622h4.552c.914 0 1.655.726 1.655 1.622v1.821c0 1.56.632 3.055 1.757 4.157l.312.305v2.23h-6Zm0 0V17.5"/>
</svg>
